src/raw/feedback/icon_24.svg

<svg width="24" height="24" viewBox="0 0 24 24" fill="none" xmlns="http://www.w3.org/2000/svg">
<path d="M8.24999 18L5.24999 20.25V15.75H2.25C1.85217 15.75 1.47064 15.5919 1.18934 15.3106C0.908034 15.0293 0.749999 14.6478 0.749999 14.25V2.25C0.749999 1.85217 0.908034 1.47064 1.18934 1.18934C1.47064 0.908034 1.85217 0.749999 2.25 0.749999H18.75C19.1478 0.749999 19.5293 0.908034 19.8106 1.18934C20.0919 1.47064 20.25 1.85217 20.25 2.25V6.71484" stroke="#71717A" stroke-width="1.5" stroke-linecap="round" stroke-linejoin="round"/>
<path d="M5.24999 5.24999H15.75" stroke="#71717A" stroke-width="1.5" stroke-linecap="round" stroke-linejoin="round"/>
<path d="M5.24999 9.74999H8.24999" stroke="#71717A" stroke-width="1.5" stroke-linecap="round" stroke-linejoin="round"/>
<path d="M23.25 18.75H20.25V23.25L15.75 18.75H11.25V9.74999H23.25V18.75Z" stroke="#71717A" stroke-width="1.5" stroke-linecap="round" stroke-linejoin="round"/>
<path d="M19.5 15H15" stroke="#71717A" stroke-width="1.5" stroke-linecap="round" stroke-linejoin="round"/>
</svg>

<svg xmlns="http://www.w3.org/2000/svg" width="24" height="24" fill="none" viewBox="0 0 24 24">
  <path stroke="#3F3F46" stroke-linecap="round" stroke-linejoin="round" stroke-width="1.5"
    d="m8.25 18-3 2.25v-4.5h-3a1.5 1.5 0 0 1-1.5-1.5v-12a1.5 1.5 0 0 1 1.5-1.5h16.5a1.5 1.5 0 0 1 1.5 1.5v4.48M5.25 5.25h10.5M5.25 9.75h3" />
  <path stroke="#3F3F46" stroke-linecap="round" stroke-linejoin="round" stroke-width="1.5"
    d="M23.25 18.75h-3v4.5l-4.5-4.5h-4.5v-9h12v9ZM20.25 12.75h-6M20.25 15.75h-6" />
</svg>
